X: 275
T: Wszechstronne ?wiczenia g?osowe – Adagio
C: Józef Stefani
L: 1/4
M: C
N: Derived from pl-wtm--r-1461--003_stefani-jozef--wszechstronne-cwiczenia-glosowe-adagio.krn
Q: "Adagio"
V: 1 clef=treble
V: 2 clef=treble
V: 3 clef=bass
K: C
[V:1] C4 | 
[V:2] [CG,E,][CG,E,][CG,E,][CG,E,] | 
[V:3] [C,C,,][C,C,,][C,C,,][C,C,,] | 
[V:1] D4 | 
[V:2] [DG,][DG,][DG,][DG,] | 
[V:3] [B,,B,,,][B,,B,,,][B,,B,,,][B,,B,,,] | 
[V:1] E4 | 
[V:2] [ECG,][ECG,][ECG,][ECG,] | 
[V:3] [C,C,,][C,C,,][C,C,,][C,C,,] | 
[V:1] F4 | 
[V:2] [FCF,][FCF,][FCF,][FCF,] | 
[V:3] [A,,A,,,][A,,A,,,][A,,A,,,][A,,A,,,] | 
[V:1] G4 | 
[V:2] [GCG,][GCG,][GCG,][GCG,] | 
[V:3] [E,E,,][E,E,,][E,E,,][E,E,,] | 
[V:1] A4 | 
[V:2] [AFC][AFC][AFC][AFC] | 
[V:3] [F,F,,][F,F,,][F,F,,][F,F,,] | 
[V:1] B4 | 
[V:2] [BGF][BGF][BGF][BGF] | 
[V:3] [D,D,,][D,D,,][D,D,,][D,D,,] | 
[V:1] c4 | 
[V:2] [cGE][cGE][cGE][cGE] | 
[V:3] [C,C,,][C,C,,][C,C,,][C,C,,] | 
[V:1] d4 | 
[V:2] [dGD][dGD][dGD][dGD] | 
[V:3] [B,B,,][B,B,,][B,B,,][B,B,,] | 
[V:1] e4 | 
[V:2] [ecG][ecG][ecG][ecG] | 
[V:3] [_B,_B,,][B,B,,][B,B,,][B,B,,] | 
[V:1] f4 | 
[V:2] [fcF][fcF][fcF][fcF] | 
[V:3] [A,A,,][A,A,,][A,A,,][A,A,,] | 
[V:1] g4 | 
[V:2] [gcG][gcG][gcG][gcG] | 
[V:3] [E,E,,][E,E,,][E,E,,][E,E,,] | 
[V:1] a4 ||  
[V:2] [afc][afc][afc][afc] ||  
[V:3] [F,F,,][F,F,,][F,F,,][F,F,,] ||  
[V:1] a4 | 
[V:2] [afc][afc][afc][afc] | 
[V:3] [F,F,,][F,F,,][F,F,,][F,F,,] | 
[V:1] g4 | 
[V:2] [gcG][gcG][gcG][gcG] | 
[V:3] [E,E,,][E,E,,][E,E,,][E,E,,] | 
[V:1] f4 | 
[V:2] [fBG][fBG][fBG][fBG] | 
[V:3] [D,D,,][D,D,,][D,D,,][D,D,,] | 
[V:1] e4 | 
[V:2] [ecG][ecG][ecG][ecG] | 
[V:3] [C,C,,][C,C,,][C,C,,][C,C,,] | 
[V:1] d4 | 
[V:2] [dG][dG][dG][dG] | 
[V:3] [B,,B,,,][B,,B,,,][B,,B,,,][B,,B,,,] | 
[V:1] c4 | 
[V:2] [c^FD][cFD][cFD][cFD] | 
[V:3] [A,A,,][A,A,,][A,A,,][A,A,,] | 
[V:1] B4 | 
[V:2] [BGD][BGD][BGD][BGD] | 
[V:3] [G,G,,][G,G,,][G,G,,][G,G,,] | 
[V:1] A4 | 
[V:2] [A^FDC][AFDC][AFDC][AFDC] | 
[V:3] [D,D,,][D,D,,][D,D,,][D,D,,] | 
[V:1] G4 | 
[V:2] [GDB,][GDB,][GDB,][GDB,] | 
[V:3] [G,G,,][G,G,,][G,G,,][G,G,,] | 
[V:1] F4 | 
[V:2] [FDG,][FDG,][FDG,][FDG,] | 
[V:3] [B,,B,,,][B,,B,,,][B,,B,,,][B,,B,,,] | 
[V:1] E4 | 
[V:2] [ECG,][ECG,][ECG,][ECG,] | 
[V:3] [C,C,,][C,C,,][C,C,,][C,C,,] | 
[V:1] D4 | 
[V:2] [DB,G,][DB,G,][DB,G,][DB,G,] | 
[V:3] [F,G,,][F,G,,][F,G,,][F,G,,] | 
[V:1] C4 |]  
[V:2] [CG,][CG,][CG,][CG,] |]  
[V:3] [E,C,][E,C,][E,C,][E,C,] |]  

